X:1
T:I Love Jesus
T:I Love Jesus
T:Bentley DeForest Ackley
T:Eliza Edmunds Stites Hewitt, 1910
T:Public Domain Courtesy of the Cyber Hymnal™
T:Public Domain Courtesy of the Cyber Hymnal™
C:Bentley DeForest Ackley
Z:Public Domain
Z:Courtesy of the Cyber Hymnal™
%%score ( 1 2 ) 3
L:1/8
Q:1/4=110
M:4/4
K:Eb
V:1 treble 
V:2 treble 
V:3 bass 
V:1
 [EG]3 [FA] [GB][EG][EF]E | [EA]2 [Ec]2 [EB]4 | [EB]3 [Ec] [EB][EG][DF]E | [DA]2 [EG]2 [DF]4 | %4
w: 1.~I love Je- sus, for He|saved my soul;|From His cross the tides of|mer- cy roll;|
w: 2.~I love Je- sus, for He’s|al- ways near,|Ev- er read- y with a|word of cheer;|
w: 3.~I love Je- sus when the|joy- beams glow;|Love Him, when the storm- y|tem- pests blow;|
 [EG]3 [FA] [GB][EG][DF]E | [EA]2 [Ac]2 [Ae]4 | [GB]3 [Gc] [GB][EG]E[EF] | [EG]2 [DF]2 E4 || %8
w: Long and far He sought me,|when a- stray;|Now, He leads me in His|own right way.|
w: Ev- ery day, and ev- ery|pass- ing hour,|I will trust Him for His|keep- ing power.|
w: I will praise Him while the|ag- es roll;|Hal- le- lu- jah! for He|saved my soul.|
"^Refrain" [Ge]3 [GB] [Ac] [GB]3 | [EG]2 [AB]2 z2 x4 | [Ge]3 [GB] [Ac] [GB]3 | [EG]2 [EF]2 [DF]4 | %12
w: ||||
w: I love Je- sus;|He’s my|king; Of His mer-|cy I will|
w: ||||
 [EG]3 [FA] [GB][EG][DF]E | [EA]2 [Ac]2 [Ae]4 | [GB]3 [Gc] [GB][EG]E[EF] | [EG]2 [DF]2 E4 |] %16
w: ||||
w: sing; I will fol- low in|His paths of|light, Till I see Him in|His glo- ry|
w: ||||
V:2
 x7 E | x8 | x7 E | x8 | x7 E | x8 | x6 E x | x4 E4 || x8 | x4 B4 A2 | x8 | x8 | x7 E | x8 | %14
 x6 E x | x4 E4 |] %16
V:3
 [E,B,]3 [E,B,] [E,E][E,B,][E,A,][E,G,] | [C,A,]2 [A,,A,]2 [E,G,]4 | %2
 [E,G,]3 [E,A,] [E,G,][E,B,][A,B,][G,B,] | [F,B,]2 [E,B,]2 [B,,B,]4 | %4
 [E,B,]3 [E,B,] [E,E][E,B,][F,B,][G,_D] | [A,C]2 [A,E]2 [A,,C]4 | %6
 [E,E]3 [E,E] [E,E][E,B,][C,=A,][C,A,] | [B,,B,]2 [B,,A,]2 [E,G,]4 || [E,B,]3 [E,E] [E,E] [E,E]3 | %9
 [E,B,]2 [F,C]2 ([G,E]2 [F,D]2) x2 | [E,B,]3 [E,E] [E,E] [E,E]3 | [E,B,]2 [C,=A,]2 [B,,B,]4 | %12
 [E,B,]3 [E,B,] [E,E][E,B,][F,B,][G,_D] | [A,C]2 [A,E]2 [A,,C]4 | %14
 [E,E]3 [E,E] [E,E][E,B,][C,=A,][C,A,] | [B,,B,]2 [B,,A,]2 [E,G,]4 |] %16

